%
(Generated by vcarve)
G00 Z0.5
G00 X99.699597 Y-6.105032
G01 F100
G01 X99.699597 Y-6.105032 Z-0.2999999999999994
G01 X99.66029971678581 Y-6.492467720850523 Z-0.2999999999999994
G01 X99.54162434546319 Y-6.8701615219251115 Z-0.2999999999999994
G01 X99.33978644258676 Y-7.243603235320357 Z-0.2999999999999994
G01 X99.04987392133032 Y-7.614562762243618 Z-0.2999999999999994
G01 X98.6682255489049 Y-7.981911570920011 Z-0.2999999999999994
G01 X98.19299037897295 Y-8.343438251106871 Z-0.2999999999999994
G01 X97.57434141293275 Y-8.609991607240676 Z-0.39999999999999936
G01 X96.91714053213119 Y-8.950716657189854 Z-0.39999999999999936
G01 X96.16534509895148 Y-9.281547513796474 Z-0.39999999999999936
G01 X95.41908532599335 Y-9.88439613136923 Z-0
G01 X95.29022916832314 Y-9.50571484344498 Z-0.49999999999999933
G01 X94.38102838900532 Y-9.795181355408479 Z-0.49999999999999933
G01 X93.40603772491454 Y-9.957707763082157 Z-0.5999999999999993
G01 X92.39705297239486 Y-10.088404204232269 Z-0.6999999999999993
G01 X91.35347607563007 Y-10.18767606753784 Z-0.7999999999999993
G01 X90.2886174345773 Y-10.354872391933815 Z-0.7999999999999993
G01 X89.17106346764479 Y-10.392558884037744 Z-0.8999999999999992
G01 X88.01751007284113 Y-10.399447019697533 Z-0.9999999999999992
G01 X86.82750265921332 Y-10.375684698591945 Z-1.0999999999999992
G01 X85.60062884674575 Y-10.32137742540105 Z-1.1999999999999993
G01 X84.336517 Y-10.436596999999999 Z-1.0999999999999992
G01 X84.336517 Y-10.436596999999999 Z-1.0999999999999992
G01 X83.01636614853444 Y-10.218935267246316 Z-1.2999999999999994
G01 X81.63414745314648 Y-10.065919257418173 Z-1.3999999999999995
G01 X80.18955817805401 Y-9.877496868290415 Z-1.4999999999999996
G01 X78.68234982643023 Y-9.653612219631022 Z-1.5999999999999996
G01 X77.10135845417075 Y-9.493606767473313 Z-1.5999999999999996
G01 X75.4666596672422 Y-9.198431920464762 Z-1.6999999999999997
G01 X73.75478210383953 Y-8.96661285512633 Z-1.6999999999999997
G01 X71.99251851009703 Y-8.599910160832486 Z-1.7999999999999998
G01 X70.15019200633382 Y-8.296042131319197 Z-1.7999999999999998
G01 X68.24216679362283 Y-7.955977724860629 Z-1.7999999999999998
G01 X67.86933939425643 Y-9.637376936128863 Z-0
G01 X66.7379136029786 Y-10.03169556997005 Z-0.2999999999999994
G01 X65.71702517354898 Y-10.656063589698462 Z-0.2999999999999994
G01 X64.65663106963841 Y-11.251365950025967 Z-0.39999999999999936
G01 X63.668829784287226 Y-11.983352332682367 Z-0.39999999999999936
G01 X62.63503809202968 Y-12.691415174614983 Z-0.49999999999999933
G01 X61.61367449532349 Y-13.457240969485703 Z-0.5999999999999993
G01 X60.675785070188496 Y-14.35181747375193 Z-0.5999999999999993
G01 X59.68377655607132 Y-15.230334842622344 Z-0.6999999999999993
G01 X58.70579262042735 Y-16.166381605607064 Z-0.7999999999999993
G01 X57.8200865852389 Y-17.222702763102415 Z-0.7999999999999993
G01 X57.82206035003026 Y-17.220274276254326 Z-0.7999999999999993
G01 X56.7819357240814 Y-18.215870053869377 Z-0.9999999999999992
G01 X55.8056971054679 Y-19.365885717391812 Z-1.0999999999999992
G01 X54.81613209920668 Y-20.606693039240362 Z-1.1999999999999993
G01 X53.81343552646877 Y-21.93795222720023 Z-1.2999999999999994
G01 X52.797750683476565 Y-23.359378691011187 Z-1.3999999999999995
G01 X51.76918332254469 Y-24.870733826064345 Z-1.4999999999999996
G01 X50.640812643989385 Y-26.422510317145488 Z-1.6999999999999997
G01 X49.58590434130388 Y-28.114574415100396 Z-1.7999999999999998
G01 X48.51837677250661 Y-29.89595206517948 Z-1.9
G01 X47.70564211680822 Y-31.902552525856745 Z-1.6999999999999997
G01 X47.43825082551387 Y-31.766530846184768 Z-2
G01 X46.48442349317947 Y-33.62854814494388 Z-2
G01 X45.58365787493854 Y-35.36024416389179 Z-2
G01 X44.736173289925325 Y-36.961281151921284 Z-2
G01 X43.94227021906559 Y-38.4312110126081 Z-2
G01 X43.20237107451552 Y-39.76942676206765 Z-2
G01 X42.51708786127066 Y-40.97508629674631 Z-2
G01 X41.8873395760794 Y-42.04698852568603 Z-2
G01 X41.31456691960358 Y-42.98336419359192 Z-2
G01 X40.80115059483555 Y-43.7815071155495 Z-2
G01 X40.514036771695544 Y-44.553342823662675 Z-1.7999999999999998
G01 X40.83748645352911 Y-44.78870683154781 Z-1.3999999999999995
G01 X39.92094840507615 Y-45.0192066489116 Z-2
G01 X39.45908604413579 Y-45.59815077612196 Z-2
G01 X38.96248112743591 Y-46.17783087963896 Z-2
G01 X38.43087579831515 Y-46.758033483552516 Z-2
G01 X37.86405833229245 Y-47.33852979177421 Z-2
G01 X37.261859112050836 Y-47.91908382261241 Z-2
G01 X36.62414607200057 Y-48.49945885817828 Z-2
G01 X35.95081997653802 Y-49.07942236882109 Z-2
G01 X35.24180979375008 Y-49.65874961631059 Z-2
G01 X35.040684836400445 Y-50.95449953385201 Z-1.0999999999999992
G01 X35.46695243065573 Y-51.509789723711336 Z-0.39999999999999936
G01 X32.64510032344766 Y-51.901581881426424 Z-1.6999999999999997
G01 X30.739744486970807 Y-53.44158296397743 Z-1.3999999999999995
G01 X28.7492607138696 Y-54.75505316617507 Z-1.1999999999999993
G01 X26.726170678769996 Y-55.92521514856208 Z-0.9999999999999992
G01 X24.634126761185808 Y-56.85723258355938 Z-0.8999999999999992
G01 X22.54410141197562 Y-57.73622465022485 Z-0.6999999999999993
G01 X20.393430884887813 Y-58.37082754441052 Z-0.5999999999999993
G01 X18.214495824276334 Y-58.85427637878323 Z-0.49999999999999933
G01 X16.006333724712775 Y-59.185370575972236 Z-0.39999999999999936
G01 X13.768340000000004 Y-59.462727 Z-0.19999999999999937
G01 X13.768340000000002 Y-59.462727 Z-0.19999999999999937
G01 X12.59517241048386 Y-59.23742862986039 Z-0.39999999999999936
G01 X11.467044379509083 Y-59.16164801590269 Z-0.39999999999999936
G01 X10.369845267213737 Y-59.13457138959247 Z-0.2999999999999994
G01 X9.326435310411938 Y-58.95749746045056 Z-0.2999999999999994
G01 X8.32765122048949 Y-58.73017011665211 Z-0.2999999999999994
G01 X7.373377584482349 Y-58.45274453589915 Z-0.2999999999999994
G01 X6.500333366070536 Y-58.032411540937915 Z-0.39999999999999936
G01 X5.6406633221020375 Y-57.65785228402889 Z-0.39999999999999936
G01 X4.824875557306745 Y-57.23402928796621 Z-0.39999999999999936
G01 X4.0525691798322265 Y-56.760939804116695 Z-0.39999999999999936
G01 X4.054253361014395 Y-56.762062627403814 Z-0.39999999999999936
G01 X3.351261550416597 Y-56.251409911881744 Z-0.39999999999999936
G01 X2.7256500494616107 Y-55.71439295098011 Z-0.39999999999999936
G01 X2.176667052160532 Y-55.15136972368363 Z-0.39999999999999936
G01 X1.703328190421531 Y-54.5624353147901 Z-0.39999999999999936
G01 X1.3045030031152778 Y-53.94729806779208 Z-0.39999999999999936
G01 X0.9790793492107575 Y-53.30521093122629 Z-0.39999999999999936
G01 X0.7261703203559503 Y-52.63501068795105 Z-0.39999999999999936
G01 X0.5452906441746936 Y-51.935279738185265 Z-0.39999999999999936
G01 X0.43643015495264176 Y-51.204583620565636 Z-0.39999999999999936
G01 X0.09999999999999937 Y-50.441697 Z-0
G01 X0.09999999999999937 Y-50.441697 Z-0
G01 X0.4114698035125978 Y-50.05928930481529 Z-0.39999999999999936
G01 X0.44572507633764014 Y-49.68984615694086 Z-0.39999999999999936
G01 X0.5025553642250965 Y-49.333119492216795 Z-0.39999999999999936
G01 X0.5817965954394873 Y-48.988785388543775 Z-0.39999999999999936
G01 X0.6833542328496403 Y-48.65645542894649 Z-0.39999999999999936
G01 X0.8991373281441529 Y-48.3750892585258 Z-0.49999999999999933
G01 X1.1310940715211473 Y-48.118039585891054 Z-0.5999999999999993
G01 X1.3780447248740744 Y-47.8840763325453 Z-0.6999999999999993
G01 X1.720434735783047 Y-47.729929527033505 Z-0.8999999999999992
G01 X1.9910428897747408 Y-47.54286636393859 Z-0.9999999999999992
G01 X1.298008141421762 Y-46.96866880417874 Z-0
G01 X2.4097370638946107 Y-47.52298096596834 Z-1.2999999999999994
G01 X2.7298202585332243 Y-47.49070173309686 Z-1.4999999999999996
G01 X3.022690499371304 Y-47.50772935768174 Z-1.6999999999999997
G01 X3.2300535590798862 Y-47.48553306530079 Z-1.7999999999999998
G01 X3.462605904864027 Y-47.58325328479406 Z-2
G01 X3.584963871870058 Y-47.528215509444635 Z-2
G01 X3.7075677415571833 Y-47.486658769866956 Z-2
G01 X3.8352963022633397 Y-47.456688413320705 Z-2
G01 X3.9732895272443134 Y-47.437867295206 Z-2
G01 X4.126275 Y-47.131177 Z-1.6999999999999997
G01 X4.126275 Y-47.131177 Z-1.6999999999999997
G01 X4.415357020784174 Y-47.4464326121422 Z-2
G01 X4.605493992161374 Y-47.48062234529935 Z-2
G01 X4.703853617760833 Y-47.51383063873331 Z-2
G01 X4.733773551844702 Y-47.529723999510445 Z-2
G01 X4.733182642430082 Y-47.528934734244764 Z-2
G01 X4.738602544455861 Y-47.53674087892422 Z-2
G01 X4.766101085903212 Y-47.592304080272626 Z-2
G01 X4.808437109472662 Y-47.728454896438926 Z-2
G01 X4.846956357841762 Y-47.96156837985174 Z-2
G01 X4.963139 Y-48.29433699999999 Z-1.9
G01 X4.963139 Y-48.294337 Z-1.9
G01 X4.858840868893063 Y-48.431659782886946 Z-2
G01 X4.846770800792276 Y-48.55550136598988 Z-2
G01 X4.828010168391367 Y-48.667396854456875 Z-2
G01 X4.8033228477822965 Y-48.769291122438254 Z-2
G01 X4.773027968686592 Y-48.86344413123884 Z-2
G01 X4.736910694827877 Y-48.952276776065595 Z-2
G01 X4.69419618602554 Y-49.038177102711096 Z-2
G01 X4.643599046934101 Y-49.12330043461123 Z-2
G01 X4.583441670367593 Y-49.209401059873024 Z-2
G01 X4.5872767790748075 Y-49.36334413016235 Z-1.9
G01 X4.511777167248454 Y-49.297771177151006 Z-2
G01 X4.441385875450878 Y-49.37312754331549 Z-2
G01 X4.379003174215699 Y-49.43038378465157 Z-2
G01 X4.3246074296139065 Y-49.472667321693685 Z-2
G01 X4.277136556711371 Y-49.503405577257524 Z-2
G01 X4.234362267739371 Y-49.52595090858747 Z-2
G01 X4.192967836415804 Y-49.54313099936257 Z-2
G01 X4.148856459735429 Y-49.5568398416326 Z-2
G01 X4.097633478405163 Y-49.56779171730888 Z-2
G01 X4.0351358627759835 Y-49.57550879388531 Z-2
G01 X3.9578690000000005 Y-49.878527 Z-1.6999999999999997
G01 X3.957869 Y-49.878527 Z-1.6999999999999997
G01 X3.7764625794003295 Y-49.769708292000026 Z-1.7999999999999998
G01 X3.6257123512244287 Y-49.9468991204207 Z-1.5999999999999996
G01 X3.5674811795357937 Y-49.928750338853824 Z-1.5999999999999996
G01 X3.5656483409116446 Y-49.928641748369635 Z-1.5999999999999996
G01 X3.6627316441691034 Y-49.87937565765635 Z-1.6999999999999997
G01 X3.617908544659275 Y-49.98051585123297 Z-1.5999999999999996
G01 X3.6226563667016567 Y-49.98768372295376 Z-1.5999999999999996
G01 X3.608292051447176 Y-49.94296514520509 Z-1.5999999999999996
G01 X3.687848168743087 Y-49.81792181070061 Z-1.6999999999999997
G01 X3.878909 Y-49.641687000000005 Z-1.9
G01 X3.878909 Y-49.641687000000005 Z-1.9
G01 X3.974174526702858 Y-49.37571345510706 Z-2
G01 X3.958545932209219 Y-49.11191851032923 Z-2
G01 X3.928541314417483 Y-48.84366528676951 Z-2
G01 X3.877490917956507 Y-48.5613734372964 Z-2
G01 X3.7922579972632455 Y-48.251729814349964 Z-2
G01 X3.6468379581932573 Y-47.898913301045155 Z-2
G01 X3.3141408430267303 Y-47.55612360972737 Z-1.9
G01 X2.6038609110010724 Y-47.551854474549415 Z-1.3999999999999995
G01 X2.022686059293276 Y-47.69263638355149 Z-0.9999999999999992
G01 X1.6423010000000002 Y-48.031147000000004 Z-0.5999999999999993
G01 X1.642301 Y-48.031147000000004 Z-0.5999999999999993
G01 X1.3232974541514915 Y-48.08036865397162 Z-0.5999999999999993
G01 X1.0923043453803523 Y-48.30802285855888 Z-0.49999999999999933
G01 X0.888623678743657 Y-48.502238068864834 Z-0.49999999999999933
G01 X0.8293673918902317 Y-48.77660467058451 Z-0.39999999999999936
G01 X0.7275559465942748 Y-49.01583731760697 Z-0.39999999999999936
G01 X0.651326170243935 Y-49.283759376754894 Z-0.39999999999999936
G01 X0.5952825078688815 Y-49.583282554042405 Z-0.39999999999999936
G01 X0.5566396569050185 Y-49.91702504668058 Z-0.39999999999999936
G01 X0.5339667508251316 Y-50.28692309244165 Z-0.39999999999999936
G01 X0.7265120000000006 Y-50.694337000000004 Z-0.19999999999999937
G01 X0.7265120000000006 Y-50.694337000000004 Z-0.19999999999999937
G01 X0.5636764877513276 Y-51.407965935679385 Z-0.39999999999999936
G01 X0.6755139216819646 Y-52.1017819509274 Z-0.39999999999999936
G01 X0.8621863825881166 Y-52.77423765956772 Z-0.39999999999999936
G01 X1.1233240488225653 Y-53.42374067152527 Z-0.39999999999999936
G01 X1.458078595389151 Y-54.04893527771399 Z-0.39999999999999936
G01 X1.8653079669320891 Y-54.64890873232087 Z-0.39999999999999936
G01 X2.343810588190875 Y-55.223256119572355 Z-0.39999999999999936
G01 X2.8925190010548674 Y-55.77201412819004 Z-0.39999999999999936
G01 X3.510606002083848 Y-56.29552473609688 Z-0.39999999999999936
G01 X4.309367434035678 Y-56.62849968313814 Z-0.19999999999999937
G01 X4.365757915230493 Y-56.54591198600242 Z-0
G01 X4.945457344227786 Y-57.257613487794096 Z-0.39999999999999936
G01 X5.724218309365083 Y-57.67087346879326 Z-0.39999999999999936
G01 X6.535296843718509 Y-58.035214353569394 Z-0.39999999999999936
G01 X7.410446300157777 Y-58.25589989487372 Z-0.2999999999999994
G01 X8.27935541723321 Y-58.52061835220876 Z-0.2999999999999994
G01 X9.179835417832892 Y-58.7369460844676 Z-0.2999999999999994
G01 X10.11172779137319 Y-58.90498465794485 Z-0.2999999999999994
G01 X11.074913185363611 Y-59.024853920707784 Z-0.2999999999999994
G01 X12.064577475929482 Y-59.19656992896871 Z-0.39999999999999936
G01 X13.094869999999998 Y-59.020597 Z-0.19999999999999937
G01 X13.09487 Y-59.020597 Z-0.19999999999999937
G01 X15.365265224906718 Y-59.11701343580487 Z-0.39999999999999936
G01 X17.60844080615109 Y-58.90438131510105 Z-0.49999999999999933
G01 X19.823354249001266 Y-58.480008872671235 Z-0.5999999999999993
G01 X22.007993541703016 Y-57.841669186809995 Z-0.6999999999999993
G01 X24.159642132092916 Y-56.98788234698631 Z-0.7999999999999993
G01 X26.327818659184647 Y-56.00310694431817 Z-0.9999999999999992
G01 X28.470611388381613 Y-54.79324055047718 Z-1.1999999999999993
G01 X30.582897535451856 Y-53.358560294263356 Z-1.3999999999999995
G01 X32.73073838997493 Y-51.77115035417816 Z-1.6999999999999997
G01 X34.773661470106575 Y-49.886472047113344 Z-1.9
G01 X34.770271227579194 Y-49.890313420921906 Z-1.9
G01 X35.754034668626204 Y-48.89366238288785 Z-2
G01 X36.70347550670641 Y-47.71412394293634 Z-2
G01 X37.695590628165746 Y-46.41661606332343 Z-2
G01 X38.731852652413295 Y-45.000076010437034 Z-2
G01 X39.813313801731326 Y-43.46366851985592 Z-2
G01 X40.94074219375795 Y-41.80673341823122 Z-2
G01 X42.11470951654195 Y-40.02874495049017 Z-2
G01 X43.335648763122734 Y-38.12928088669604 Z-2
G01 X44.60389309574864 Y-36.10799921919634 Z-2
G01 X45.91970254764637 Y-33.96462057569065 Z-2
G01 X45.916907886753265 Y-33.969205497842665 Z-2
G01 X47.97702664903215 Y-30.542991667753505 Z-1.9
G01 X49.9734629079363 Y-27.299634039356985 Z-1.6999999999999997
G01 X51.992575969937434 Y-24.290004483785143 Z-1.4999999999999996
G01 X54.03576379030666 Y-21.512669328880875 Z-1.2999999999999994
G01 X56.0331431021815 Y-18.896417737977433 Z-0.9999999999999992
G01 X58.134852263731716 Y-16.57489406414043 Z-0.7999999999999993
G01 X60.26869515873335 Y-14.480962742242276 Z-0.5999999999999993
G01 X62.49537546110032 Y-12.69585512494173 Z-0.49999999999999933
G01 X64.74950673571944 Y-11.145197502323043 Z-0.39999999999999936
G01 X67.03355046734065 Y-9.828797384995637 Z-0.2999999999999994
G01 X66.92164394399038 Y-9.458997115205573 Z-0
G01 X66.70620711097627 Y-7.899964341797665 Z-1.5999999999999996
G01 X66.2507241852354 Y-7.512575677942193 Z-1.9
G01 X65.69515457809663 Y-7.407639645075794 Z-1.9
G01 X65.09223627929731 Y-7.289787950490141 Z-1.9
G01 X64.44235129257953 Y-7.159064215631979 Z-1.9
G01 X63.74578472338241 Y-7.015504235967789 Z-1.9
G01 X63.00275361505946 Y-6.859137403635453 Z-1.9
G01 X62.21342608252757 Y-6.689987940003262 Z-1.9
G01 X61.35651226297599 Y-6.605754432713819 Z-1.7999999999999998
G01 X60.47468923641692 Y-6.411036383525117 Z-1.7999999999999998
G01 X60.232327609494824 Y-7.484022015498536 Z-0.6999999999999993
G01 X58.355916851138254 Y-5.964654280512889 Z-1.7999999999999998
G01 X56.34465029839069 Y-5.5664957916077284 Z-1.7999999999999998
G01 X54.41356242460342 Y-5.3129615461722075 Z-1.6999999999999997
G01 X52.5827015854407 Y-5.106140915327464 Z-1.5999999999999996
G01 X50.83809409487949 Y-5.045127133355933 Z-1.3999999999999995
G01 X49.20981630416595 Y-4.932254756112679 Z-1.2999999999999994
G01 X47.68219400995956 Y-4.866384145243181 Z-1.1999999999999993
G01 X46.25538868216878 Y-4.847658313979721 Z-1.0999999999999992
G01 X44.92963419816767 Y-4.876255838359165 Z-0.9999999999999992
G01 X43.70527600000002 Y-4.952397999999998 Z-0.8999999999999992
G01 X43.70527600000001 Y-4.952397999999998 Z-0.8999999999999992
G01 X43.56176532210982 Y-5.754104433197454 Z-0.09999999999999937
G01 X43.34977500293934 Y-5.059543809235268 Z-0.7999999999999993
G01 X43.10822322186263 Y-5.068175714264301 Z-0.7999999999999993
G01 X42.821289609800424 Y-5.080140279960926 Z-0.7999999999999993
G01 X42.4882626186339 Y-5.0954444671775665 Z-0.7999999999999993
G01 X42.108765798899924 Y-5.114095473044189 Z-0.7999999999999993
G01 X41.68784148486988 Y-5.235960508627657 Z-0.6999999999999993
G01 X41.215013025737235 Y-5.2613111020572 Z-0.6999999999999993
G01 X40.700829122123984 Y-5.389866763349152 Z-0.5999999999999993
G01 X40.13418955210813 Y-5.421934775614805 Z-0.5999999999999993
G01 X40.08023944601719 Y-6.068066799402756 Z-0
G01 X40.091485903256086 Y-6.984256548738561 Z-0.49999999999999933
G01 X40.32461571759607 Y-7.770070115543462 Z-0.5999999999999993
G01 X40.61043640511639 Y-8.53428986626112 Z-0.5999999999999993
G01 X40.858379273787115 Y-9.31951667224472 Z-0.5999999999999993
G01 X41.06842698492719 Y-10.125996554423626 Z-0.5999999999999993
G01 X41.142150483787105 Y-10.971911241600866 Z-0.6999999999999993
G01 X41.27547000074579 Y-11.81683883986497 Z-0.6999999999999993
G01 X41.37088512308204 Y-12.683744015143226 Z-0.6999999999999993
G01 X41.328340100318115 Y-13.577033422417767 Z-0.7999999999999993
G01 X41.44740700000001 Y-14.484076999999994 Z-0.6999999999999993
G01 X41.44740700000001 Y-14.484076999999996 Z-0.6999999999999993
G01 X41.1797376411331 Y-16.256373215160146 Z-0.8999999999999992
G01 X40.97685150441615 Y-18.005451985933064 Z-0.8999999999999992
G01 X40.541398126863356 Y-19.709558283501597 Z-0.9999999999999992
G01 X40.06974520422036 Y-21.408516266559975 Z-0.9999999999999992
G01 X39.369735694785824 Y-23.05065232331723 Z-1.0999999999999992
G01 X38.62890855214398 Y-24.705251076093074 Z-1.0999999999999992
G01 X37.75095292520534 Y-26.34261108780728 Z-1.0999999999999992
G01 X36.81774865376887 Y-28.018977858032997 Z-0.9999999999999992
G01 X35.658763596363634 Y-29.627794776610138 Z-0.9999999999999992
G01 X34.359654702011056 Y-31.219194880607827 Z-0.9999999999999992
G01 X34.35965979327344 Y-31.21918899671587 Z-0.9999999999999992
G01 X33.055355941513156 Y-32.78932835419365 Z-0.8999999999999992
G01 X31.66251041889743 Y-34.129928077604845 Z-0.8999999999999992
G01 X30.31895412461861 Y-35.38615160092915 Z-0.7999999999999993
G01 X28.951197835532078 Y-36.48934261770769 Z-0.6999999999999993
G01 X27.509278111864653 Y-37.35243080066896 Z-0.6999999999999993
G01 X26.093720910610546 Y-38.14776570547129 Z-0.5999999999999993
G01 X24.646375087291506 Y-38.79167282796855 Z-0.49999999999999933
G01 X23.143638675332394 Y-39.18521388564967 Z-0.49999999999999933
G01 X21.63369616754641 Y-39.52060249583528 Z-0.39999999999999936
G01 X20.084300000000017 Y-39.79976699999999 Z-0.19999999999999937
G01 X20.084300000000013 Y-39.79976699999999 Z-0.19999999999999937
G01 X19.45852711861939 Y-39.578802804247985 Z-0.39999999999999936
G01 X18.858901070611267 Y-39.516164955598846 Z-0.39999999999999936
G01 X18.285086300849322 Y-39.41221308035817 Z-0.39999999999999936
G01 X17.736600024905844 Y-39.26723713228008 Z-0.39999999999999936
G01 X17.212828480961722 Y-39.08140464614856 Z-0.39999999999999936
G01 X16.713070849490123 Y-38.85471517463467 Z-0.39999999999999936
G01 X16.236607109999934 Y-38.58697617030103 Z-0.39999999999999936
G01 X15.78277670643958 Y-38.27781083795145 Z-0.39999999999999936
G01 X15.351049216716405 Y-37.92669903527517 Z-0.39999999999999936
G01 X14.72482176748304 Y-37.74097556781173 Z-0
G01 X14.72616594254536 Y-37.74240118330429 Z-0.09999999999999937
G01 X14.57499648961177 Y-37.10387092435989 Z-0.39999999999999936
G01 X14.243175932716648 Y-36.64578514533197 Z-0.39999999999999936
G01 X13.863044707214868 Y-36.212452727046355 Z-0.2999999999999994
G01 X13.605670377581054 Y-35.69931522298447 Z-0.2999999999999994
G01 X13.387625141927419 Y-35.16126735192955 Z-0.2999999999999994
G01 X13.20888639829227 Y-34.597870275609324 Z-0.2999999999999994
G01 X13.06953381601162 Y-34.00873001710572 Z-0.2999999999999994
G01 X12.969725884737922 Y-33.39352424711864 Z-0.2999999999999994
G01 X12.909671222522176 Y-32.75201474600438 Z-0.2999999999999994
G01 X12.689601000000012 Y-32.08404699999999 Z-0.09999999999999937
G01 X12.689601000000012 Y-32.08404699999999 Z-0.09999999999999937
G01 X12.924996105213063 Y-31.13604684774887 Z-0.2999999999999994
G01 X13.031347648341514 Y-30.166613674694158 Z-0.2999999999999994
G01 X13.208921660150486 Y-29.175564977074806 Z-0.2999999999999994
G01 X13.361646978456577 Y-28.135994059176372 Z-0.19999999999999937
G01 X13.684146576226128 Y-27.096020739694595 Z-0.19999999999999937
G01 X14.078757224795591 Y-26.034848018861208 Z-0.19999999999999937
G01 X14.545600437887687 Y-24.95252512611905 Z-0.19999999999999937
G01 X15.08477393147055 Y-23.849116833068422 Z-0.19999999999999937
G01 X15.696353577430598 Y-22.72469564671406 Z-0.19999999999999937
G01 X16.38039634989607 Y-21.579336166428284 Z-0.19999999999999937
G01 X16.38019032894885 Y-21.5796660406367 Z-0.19999999999999937
G01 X17.129762605031083 Y-20.43059606198003 Z-0.19999999999999937
G01 X17.921198363426928 Y-19.3116948524223 Z-0.19999999999999937
G01 X18.75451560740836 Y-18.222936036187807 Z-0.19999999999999937
G01 X19.70560065791902 Y-17.22944473195737 Z-0.2999999999999994
G01 X20.620267434762468 Y-16.20368047223963 Z-0.2999999999999994
G01 X21.576806767993183 Y-15.20787660255205 Z-0.2999999999999994
G01 X22.575257895261934 Y-14.242010758883243 Z-0.2999999999999994
G01 X23.6156609784711 Y-13.3060658414137 Z-0.2999999999999994
G01 X24.698056229122347 Y-12.400030037082685 Z-0.2999999999999994
G01 X25.70229636490908 Y-11.364036891116555 Z-0
G01 X25.76257281132826 Y-11.443828972567337 Z-0.19999999999999937
G01 X26.986438869322257 Y-10.681212842993876 Z-0.2999999999999994
G01 X28.171593732865272 Y-9.891528437472095 Z-0.2999999999999994
G01 X29.378251874195907 Y-9.154591265186452 Z-0.2999999999999994
G01 X30.60644976385733 Y-8.470358210020784 Z-0.2999999999999994
G01 X31.85623028696225 Y-7.838789761322107 Z-0.2999999999999994
G01 X33.16722140620096 Y-7.351685097002062 Z-0.39999999999999936
G01 X34.45654369755043 Y-6.826883472330184 Z-0.39999999999999936
G01 X35.76755519979229 Y-6.354502764949094 Z-0.39999999999999936
G01 X37.12845716344457 Y-6.03048662365517 Z-0.49999999999999933
G01 X38.4792116720068 Y-5.663947035199696 Z-0.49999999999999933
G01 X38.438391841511624 Y-5.119479165913988 Z-0
G01 X38.03798274750368 Y-3.990479537569521 Z-0.49999999999999933
G01 X37.18641693538871 Y-3.2635513645709837 Z-0.39999999999999936
G01 X36.34944724866797 Y-2.5620884122050147 Z-0.39999999999999936
G01 X35.453036156999026 Y-1.9535485237209347 Z-0.39999999999999936
G01 X34.45521360631197 Y-1.5290121184820453 Z-0.2999999999999994
G01 X33.452178410953515 Y-1.1121136537558252 Z-0.2999999999999994
G01 X32.39291844979605 Y-0.7883966604726871 Z-0.2999999999999994
G01 X31.278180199532315 Y-0.5576662786845137 Z-0.2999999999999994
G01 X30.108519709108624 Y-0.41955765073443274 Z-0.2999999999999994
G01 X28.884284000000022 Y-0.47362399999999283 Z-0.19999999999999937
G01 X28.884284000000022 Y-0.47362399999999283 Z-0.19999999999999937
G01 X27.82974726543117 Y-0.4044497754548182 Z-0.2999999999999994
G01 X26.772944968035404 Y-0.4969019067082079 Z-0.2999999999999994
G01 X25.714038509469244 Y-0.6509218986373368 Z-0.2999999999999994
G01 X24.653168724908596 Y-0.8664277820449939 Z-0.2999999999999994
G01 X23.59045113993111 Y-1.1433203276783361 Z-0.2999999999999994
G01 X22.525973630810213 Y-1.4814897918226768 Z-0.2999999999999994
G01 X21.459796346240044 Y-1.880822409601866 Z-0.2999999999999994
G01 X20.391953476950142 Y-2.3412060388625604 Z-0.2999999999999994
G01 X19.3224563195475 Y-2.862534601172243 Z-0.2999999999999994
G01 X18.300911043131258 Y-3.531535468259437 Z-0.19999999999999937
G01 X18.350750323775607 Y-3.618231376918226 Z-0.09999999999999937
G01 X17.20121568383735 Y-4.070521929540668 Z-0.2999999999999994
G01 X16.17602890300392 Y-4.740931095395659 Z-0.2999999999999994
G01 X15.176462519600056 Y-5.455512379569967 Z-0.2999999999999994
G01 X14.202560027423152 Y-6.214219483668544 Z-0.2999999999999994
G01 X13.254357668097441 Y-7.017002432622391 Z-0.2999999999999994
G01 X12.331883913290902 Y-7.863809032387012 Z-0.2999999999999994
G01 X11.435159289181568 Y-8.754586322358648 Z-0.2999999999999994
G01 X10.564196521422748 Y-9.689281940876064 Z-0.2999999999999994
G01 X9.719000957474247 Y-10.667845337646977 Z-0.2999999999999994
G01 X9.057857069612147 Y-11.812480928887746 Z-0
G01 X8.975993198341074 Y-11.754961267588095 Z-0.19999999999999937
G01 X8.7847477841894 Y-11.843151008623332 Z-0.2999999999999994
G01 X8.682406812651756 Y-11.973804360146072 Z-0.2999999999999994
G01 X8.588792027588918 Y-12.087339425510693 Z-0.2999999999999994
G01 X8.504415323167686 Y-12.183392176960083 Z-0.2999999999999994
G01 X8.430121447164721 Y-12.261446234306419 Z-0.2999999999999994
G01 X8.367381869766346 Y-12.320777870518645 Z-0.2999999999999994
G01 X8.318914801697547 Y-12.360453201964049 Z-0.2999999999999994
G01 X8.338788495381657 Y-12.466988002088561 Z-0.19999999999999937
G01 X8.352224300070155 Y-12.570391029523634 Z-0.09999999999999937
G01 X8.336983000000023 Y-12.573576999999993 Z-0.09999999999999937
G01 X8.336983000000023 Y-12.573576999999993 Z-0.09999999999999937
G01 X8.309460701727225 Y-12.472189493905825 Z-0.19999999999999937
G01 X8.28767181153765 Y-12.468596958763042 Z-0.19999999999999937
G01 X8.270845296054963 Y-12.463584510787376 Z-0.19999999999999937
G01 X8.257685349074329 Y-12.45759933013673 Z-0.19999999999999937
G01 X8.246580252648844 Y-12.450460072597426 Z-0.19999999999999937
G01 X8.23603500804504 Y-12.44127263281267 Z-0.19999999999999937
G01 X8.225099597871534 Y-12.428668895502398 Z-0.19999999999999937
G01 X8.213534714260305 Y-12.411233728283648 Z-0.19999999999999937
G01 X8.110269879572337 Y-12.428417369024917 Z-0.09999999999999937
G01 X8.095262658479855 Y-12.389422268602203 Z-0
G01 X8.100375000000023 Y-12.420986999999993 Z-0
G01 X8.318152286258153 Y-12.349299507405638 Z-0.2999999999999994
G01 X8.401713430964916 Y-12.169103347640533 Z-0.2999999999999994
G01 X8.55988217701175 Y-11.91287048973023 Z-0.2999999999999994
G01 X8.791318851625562 Y-11.592416731507994 Z-0.2999999999999994
G01 X9.094564605242995 Y-11.212365161310773 Z-0.2999999999999994
G01 X9.468685189385777 Y-10.774798859049634 Z-0.2999999999999994
G01 X9.913105068004882 Y-10.280773489536777 Z-0.2999999999999994
G01 X10.427461015594798 Y-9.730875190855947 Z-0.2999999999999994
G01 X11.011515629333092 Y-9.125453442858465 Z-0.2999999999999994
G01 X11.594397540560646 Y-8.39401817191375 Z-0.19999999999999937
G01 X11.664567394838317 Y-8.465268299498504 Z-0.2999999999999994
G01 X13.318610492502284 Y-6.9090007710218915 Z-0.2999999999999994
G01 X14.985929054646874 Y-5.51802300350758 Z-0.2999999999999994
G01 X16.666342647165862 Y-4.292096688087384 Z-0.2999999999999994
G01 X18.35972345186055 Y-3.230904958860049 Z-0.2999999999999994
G01 X20.06603304100813 Y-2.3340559692705023 Z-0.2999999999999994
G01 X21.785361352268353 Y-1.601102730690548 Z-0.2999999999999994
G01 X23.51795809080384 Y-1.0315827923357497 Z-0.2999999999999994
G01 X25.264243713172842 Y-0.6250754997210546 Z-0.2999999999999994
G01 X27.024788910594616 Y-0.3812662070297954 Z-0.2999999999999994
G01 X28.800259999999998 Y-0.09999999999999937 Z-0
G01 X28.80026 Y-0.09999999999999937 Z-0
G01 X30.150878449614506 Y-0.3484540129103525 Z-0.2999999999999994
G01 X31.432217586087724 Y-0.4935131556243072 Z-0.2999999999999994
G01 X32.64454105798133 Y-0.7347181341870689 Z-0.2999999999999994
G01 X33.78831752204814 Y-1.0716578528025993 Z-0.2999999999999994
G01 X34.822385761305085 Y-1.5948826639411522 Z-0.39999999999999936
G01 X35.82228551580474 Y-2.1179859854664547 Z-0.39999999999999936
G01 X36.75645347620943 Y-2.735752797384767 Z-0.39999999999999936
G01 X37.62597653641725 Y-3.448855370253962 Z-0.39999999999999936
G01 X38.35742291323873 Y-4.3252268501911795 Z-0.49999999999999933
G01 X39.173990441232135 Y-5.164973269529095 Z-0.39999999999999936
G01 X39.522762861289266 Y-5.022354908890523 Z-0
G01 X40.676134106732384 Y-5.22799008885407 Z-0.5999999999999993
G01 X41.74285421416948 Y-5.07964220746345 Z-0.6999999999999993
G01 X42.83442455702309 Y-4.961236271356882 Z-0.7999999999999993
G01 X43.95120207823608 Y-4.8724966979707425 Z-0.8999999999999992
G01 X45.09353998879482 Y-4.813191511304986 Z-0.9999999999999992
G01 X46.26178249684029 Y-4.78312836464437 Z-1.0999999999999992
G01 X47.45626086960625 Y-4.782150323540881 Z-1.1999999999999993
G01 X48.67729065377484 Y-4.810131635842341 Z-1.2999999999999994
G01 X49.92516986972653 Y-4.8669736514321515 Z-1.3999999999999995
G01 X51.200177999999994 Y-4.752601 Z-1.2999999999999994
G01 X51.200178 Y-4.752601 Z-1.2999999999999994
G01 X51.85754394960106 Y-4.956694016206161 Z-1.4999999999999996
G01 X52.49989739080249 Y-5.068923434047369 Z-1.5999999999999996
G01 X53.130980554350785 Y-5.089283958559478 Z-1.5999999999999996
G01 X53.749509556236035 Y-5.117736036932172 Z-1.5999999999999996
G01 X54.34871397835281 Y-5.254017530895667 Z-1.6999999999999997
G01 X54.940556548984354 Y-5.298433628834965 Z-1.6999999999999997
G01 X55.51970955153246 Y-5.35080030324732 Z-1.6999999999999997
G01 X56.074755392537796 Y-5.510419557000576 Z-1.7999999999999998
G01 X56.62678597017414 Y-5.5783372069034165 Z-1.7999999999999998
G01 X57.3726970772703 Y-4.269358881287849 Z-0.39999999999999936
G01 X57.3551643807138 Y-4.367841745870579 Z-0.49999999999999933
G01 X57.814093404235294 Y-5.760223419923289 Z-1.7999999999999998
G01 X58.655492043914506 Y-5.908068970511711 Z-1.7999999999999998
G01 X59.67559526076098 Y-6.095463616100242 Z-1.7999999999999998
G01 X60.872279453349805 Y-6.32210640251847 Z-1.7999999999999998
G01 X62.22525558893837 Y-6.685969918097845 Z-1.9
G01 X63.7719624816094 Y-6.990607510596405 Z-1.9
G01 X65.493162270911 Y-7.334161098719095 Z-1.9
G01 X67.408452257918 Y-7.618576660692807 Z-1.7999999999999998
G01 X69.47807408298326 Y-8.039866803677022 Z-1.7999999999999998
G01 X71.76189423179866 Y-8.304068766789404 Z-1.5999999999999996
G01 X72.12440822947606 Y-6.828522766809343 Z-0
G01 X74.1694818244799 Y-6.300725778280106 Z-0.39999999999999936
G01 X76.04497337716852 Y-5.488640728483279 Z-0.2999999999999994
G01 X77.94159845230924 Y-4.854334381216022 Z-0.2999999999999994
G01 X79.82249278985955 Y-4.3047944138164205 Z-0.2999999999999994
G01 X81.68766794253347 Y-3.8399613709978566 Z-0.2999999999999994
G01 X83.53714636312235 Y-3.4597736940966297 Z-0.2999999999999994
G01 X85.37096258254297 Y-3.1641694692400173 Z-0.2999999999999994
G01 X87.18916399398023 Y-2.9530885664539515 Z-0.2999999999999994
G01 X88.99650795009879 Y-2.9263647260464904 Z-0.39999999999999936
G01 X90.77897700000001 Y-2.5842799999999992 Z-0
G01 X90.77897700000001 Y-2.5842799999999992 Z-0
G01 X92.51353423789105 Y-2.9201103471655196 Z-0.39999999999999936
G01 X94.05946249293466 Y-3.027208476913251 Z-0.39999999999999936
G01 X95.41531149779527 Y-3.2046278376124393 Z-0.39999999999999936
G01 X96.57912496332908 Y-3.4506082006106995 Z-0.39999999999999936
G01 X97.54853305108227 Y-3.7618652717760637 Z-0.39999999999999936
G01 X98.32161874277261 Y-4.132512353796021 Z-0.39999999999999936
G01 X98.8998756379414 Y-4.553514839975695 Z-0.39999999999999936
G01 X99.29373153844976 Y-5.016569416709366 Z-0.39999999999999936
G01 X99.61911935374407 Y-5.499013005590483 Z-0.2999999999999994
G01 X99.89999700000001 Y-6.105337 Z-0
G01 X99.52591699999999 Y-6.189051999999999 Z-0.19999999999999937
G01 X99.59592920417334 Y-5.88899055701925 Z-0.2999999999999994
G01 X99.50659905462474 Y-5.59982450432414 Z-0.2999999999999994
G01 X99.36142900825371 Y-5.326991703799813 Z-0.2999999999999994
G01 X99.23958571611398 Y-5.005638606704576 Z-0.39999999999999936
G01 X98.98667378188767 Y-4.759401005378705 Z-0.39999999999999936
G01 X98.68910287893196 Y-4.530974953587655 Z-0.39999999999999936
G01 X98.34771841864134 Y-4.3175747856829565 Z-0.39999999999999936
G01 X97.96244650402197 Y-4.116993594164421 Z-0.39999999999999936
G01 X97.53283924082594 Y-3.927642946293009 Z-0.39999999999999936
G01 X97.02524601678931 Y-3.8427839537537847 Z-0.2999999999999994
G01 X97.06044821900191 Y-3.749165042593995 Z-0.39999999999999936
G01 X96.55842776319605 Y-3.583276015541034 Z-0.39999999999999936
G01 X96.03218551017576 Y-3.4354026776376028 Z-0.39999999999999936
G01 X95.48172367757832 Y-3.3053690884705906 Z-0.39999999999999936
G01 X94.90702007372403 Y-3.1930181188568647 Z-0.39999999999999936
G01 X94.30803579253117 Y-3.0982122407469905 Z-0.39999999999999936
G01 X93.68472131884647 Y-3.020832892504722 Z-0.39999999999999936
G01 X93.03702117158826 Y-2.960779023975596 Z-0.39999999999999936
G01 X92.36487730368552 Y-2.9179652472944078 Z-0.39999999999999936
G01 X91.66582260008818 Y-2.9922908546211184 Z-0.2999999999999994
G01 X90.94702699999999 Y-3.1837829999999996 Z-0
G01 X90.94702699999999 Y-3.1837829999999996 Z-0
G01 X89.13348879265656 Y-2.922035239509719 Z-0.39999999999999936
G01 X87.33926670944886 Y-3.1364431743704566 Z-0.2999999999999994
G01 X85.55174748928569 Y-3.3272817249782745 Z-0.2999999999999994
G01 X83.77522931108412 Y-3.5944592076842072 Z-0.2999999999999994
G01 X82.00978223122743 Y-3.9379642543229214 Z-0.2999999999999994
G01 X80.25547379636683 Y-4.357776745602261 Z-0.2999999999999994
G01 X78.51236726447328 Y-4.853868535048166 Z-0.2999999999999994
G01 X76.78052006805295 Y-5.4262045075032646 Z-0.2999999999999994
G01 X75.02281183547646 Y-5.981908906349052 Z-0.39999999999999936
G01 X73.35079738313489 Y-6.799441715272822 Z-0.2999999999999994
G01 X73.45758477890595 Y-7.1719889549334175 Z-0
G01 X73.58612892332316 Y-7.902604610482823 Z-0.7999999999999993
G01 X73.7442234029281 Y-8.842689126288057 Z-1.6999999999999997
G01 X74.12419355786403 Y-8.90914796001868 Z-1.6999999999999997
G01 X74.57557289795393 Y-8.989329202891533 Z-1.6999999999999997
G01 X75.09779286411307 Y-9.083140906394267 Z-1.6999999999999997
G01 X75.69053792800001 Y-9.190530678588612 Z-1.6999999999999997
G01 X76.37161042251395 Y-9.213098279117506 Z-1.5999999999999996
G01 X77.10499170742656 Y-9.347574991745885 Z-1.5999999999999996
G01 X77.908494361343 Y-9.495560614508165 Z-1.5999999999999996
G01 X78.92771659107217 Y-8.870416492441745 Z-0.7999999999999993
G01 X79.05434591466863 Y-8.181961326138847 Z-0
G01 X80.14214577534979 Y-9.808471105507492 Z-1.4999999999999996
G01 X81.48316568898217 Y-9.935590554784026 Z-1.3999999999999995
G01 X82.79192011691802 Y-10.03592431878029 Z-1.2999999999999994
G01 X84.05554991927158 Y-10.20866136479084 Z-1.2999999999999994
G01 X85.30101120928248 Y-10.255631561056541 Z-1.1999999999999993
G01 X86.51368824053183 Y-10.27580009310742 Z-1.0999999999999992
G01 X87.69333391365329 Y-10.269184045728041 Z-0.9999999999999992
G01 X88.8396749769844 Y-10.235814198511942 Z-0.8999999999999992
G01 X89.94998120291535 Y-10.275709122221354 Z-0.8999999999999992
G01 X91.031207 Y-9.989026999999998 Z-0.5999999999999993
G01 X91.031207 Y-9.989026999999998 Z-0.5999999999999993
G01 X91.72318861762717 Y-10.079490559408068 Z-0.6999999999999993
G01 X92.39692784559463 Y-10.050816613063073 Z-0.6999999999999993
G01 X93.04359397215342 Y-9.903293208364312 Z-0.5999999999999993
G01 X93.67766865711594 Y-9.83636108134053 Z-0.5999999999999993
G01 X94.2777856623175 Y-9.65130215200575 Z-0.49999999999999933
G01 X94.87157011760573 Y-9.546179797376732 Z-0.49999999999999933
G01 X95.44684250618857 Y-9.42162647601604 Z-0.49999999999999933
G01 X95.97650362167728 Y-9.181258876881115 Z-0.39999999999999936
G01 X96.51049726533552 Y-9.018752397047678 Z-0.39999999999999936
G01 X96.91927267733224 Y-8.556216656316813 Z-0
G01 X96.92066980454138 Y-8.555674698128469 Z-0.09999999999999937
G01 X97.5137496686372 Y-8.629618070065039 Z-0.39999999999999936
G01 X97.9034903157891 Y-8.32692578583647 Z-0.2999999999999994
G01 X98.28839492703078 Y-8.105675916174894 Z-0.2999999999999994
G01 X98.62719702828839 Y-7.873753848773355 Z-0.2999999999999994
G01 X98.91981392075814 Y-7.6296550014850215 Z-0.2999999999999994
G01 X99.16550864304467 Y-7.3715709695307545 Z-0.2999999999999994
G01 X99.36242015640974 Y-7.097809601931144 Z-0.2999999999999994
G01 X99.50729552204372 Y-6.807782317111144 Z-0.2999999999999994
G01 X99.59611151991605 Y-6.503313955412133 Z-0.2999999999999994
G01 X99.52591699999999 Y-6.189051999999998 Z-0.19999999999999937
G01 X41.20510599999999 Y-12.420587 Z-0.6999999999999993
G01 X41.18875640225563 Y-11.719121898128188 Z-0.6999999999999993
G01 X41.13962784544911 Y-11.026975744894246 Z-0.6999999999999993
G01 X40.958658909355854 Y-10.358739585972293 Z-0.5999999999999993
G01 X40.84454528396725 Y-9.690830097053054 Z-0.5999999999999993
G01 X40.6977107033502 Y-9.032963688067289 Z-0.5999999999999993
G01 X40.518162328923665 Y-8.385373291347493 Z-0.5999999999999993
G01 X40.30594377003101 Y-7.748292791817672 Z-0.5999999999999993
G01 X39.96895135025299 Y-7.160707758266318 Z-0.49999999999999933
G01 X39.69373601956362 Y-6.549910648328093 Z-0.49999999999999933
G01 X39.47421508432208 Y-5.902276226478917 Z-0.5999999999999993
G01 X38.93088921619859 Y-6.090388861808828 Z-0
G01 X36.98110791553863 Y-6.177649070241023 Z-0.39999999999999936
G01 X35.10693156907507 Y-6.6949951103734255 Z-0.39999999999999936
G01 X33.25984480665381 Y-7.34627120980219 Z-0.39999999999999936
G01 X31.482822379312097 Y-8.221691157476455 Z-0.2999999999999994
G01 X29.69659055959506 Y-9.13712052456825 Z-0.2999999999999994
G01 X27.93774258454685 Y-10.185450929921442 Z-0.2999999999999994
G01 X26.206340075824308 Y-11.36646484671295 Z-0.2999999999999994
G01 X24.5023926024076 Y-12.67996029378313 Z-0.2999999999999994
G01 X22.82586777880965 Y-14.125759622804837 Z-0.2999999999999994
G01 X21.247595548836383 Y-15.774241683664773 Z-0.19999999999999937
G01 X21.318488779876418 Y-15.844769336345863 Z-0
G01 X19.62218828260813 Y-17.34599644448445 Z-0.2999999999999994
G01 X18.307799831451103 Y-19.047543439740913 Z-0.19999999999999937
G01 X17.081341816353998 Y-20.678600666983925 Z-0.19999999999999937
G01 X16.017377018229045 Y-22.306160122548953 Z-0.19999999999999937
G01 X15.116139532958526 Y-23.9303647463311 Z-0.19999999999999937
G01 X14.377937477309466 Y-25.551294375888023 Z-0.19999999999999937
G01 X13.803143057158563 Y-27.168924084469136 Z-0.19999999999999937
G01 X13.392161135390937 Y-28.783083418462187 Z-0.19999999999999937
G01 X13.045893690135932 Y-30.383251555172606 Z-0.2999999999999994
G01 X13.163071999999987 Y-31.999467 Z-0.09999999999999937
G01 X13.163071999999987 Y-31.999467 Z-0.09999999999999937
G01 X12.982194700530217 Y-32.61499394539984 Z-0.2999999999999994
G01 X13.03970367327214 Y-33.212190456202784 Z-0.2999999999999994
G01 X13.13579565458568 Y-33.79085640182551 Z-0.2999999999999994
G01 X13.27062946362441 Y-34.35071782131108 Z-0.2999999999999994
G01 X13.44430205229305 Y-34.89143538706124 Z-0.2999999999999994
G01 X13.656827731121592 Y-35.41262429911194 Z-0.2999999999999994
G01 X13.908125906830874 Y-35.91388421222415 Z-0.2999999999999994
G01 X14.198021503962345 Y-36.39483457807003 Z-0.2999999999999994
G01 X14.447101301099563 Y-36.9162552054988 Z-0.39999999999999936
G01 X14.8925291755829 Y-37.29457883161966 Z-0.2999999999999994
G01 X14.968430987262922 Y-37.22941469500709 Z-0.19999999999999937
G01 X15.229391916210192 Y-37.77783637854479 Z-0.39999999999999936
G01 X15.657416299458111 Y-38.14922863448567 Z-0.39999999999999936
G01 X16.105110295174253 Y-38.478276954113205 Z-0.39999999999999936
G01 X16.572196949334817 Y-38.76436375408044 Z-0.39999999999999936
G01 X17.058199833709367 Y-39.00691561405557 Z-0.39999999999999936
G01 X17.562471435222648 Y-39.20547770145819 Z-0.39999999999999936
G01 X18.084256444717465 Y-39.35977379880133 Z-0.39999999999999936
G01 X18.62277655354843 Y-39.46973503727913 Z-0.39999999999999936
G01 X19.17731545949665 Y-39.53549065982151 Z-0.39999999999999936
G01 X19.747283999999986 Y-39.357327 Z-0.19999999999999937
G01 X19.747283999999986 Y-39.357327 Z-0.19999999999999937
G01 X21.216553242188755 Y-39.46672823145375 Z-0.39999999999999936
G01 X22.678163104012896 Y-39.19523301057057 Z-0.39999999999999936
G01 X24.165320404722962 Y-38.83745796897298 Z-0.49999999999999933
G01 X25.66132850013329 Y-38.292598345773456 Z-0.5999999999999993
G01 X27.108609381142305 Y-37.47588621007557 Z-0.5999999999999993
G01 X28.602697570321354 Y-36.56254486040625 Z-0.6999999999999993
G01 X30.095886378021955 Y-35.46439096408928 Z-0.7999999999999993
G01 X31.586039493687586 Y-34.18288450471144 Z-0.8999999999999992
G01 X32.99622176436823 Y-32.6538590032155 Z-0.8999999999999992
G01 X34.47302429470259 Y-31.013943010242873 Z-0.9999999999999992
G01 X34.47445113874789 Y-31.012106613857846 Z-0.9999999999999992
G01 X35.80138017911057 Y-29.20618007057557 Z-0.9999999999999992
G01 X37.07671880461008 Y-27.440434012721777 Z-1.0999999999999992
G01 X38.13245250510233 Y-25.60478584750283 Z-1.0999999999999992
G01 X39.04993880615841 Y-23.75623913964197 Z-1.0999999999999992
G01 X39.73482233780714 Y-21.859479474133398 Z-0.9999999999999992
G01 X40.37097647051203 Y-19.99239467045872 Z-0.9999999999999992
G01 X40.769124782640056 Y-18.09199729474196 Z-0.8999999999999992
G01 X41.12232582102537 Y-16.210376262181565 Z-0.8999999999999992
G01 X41.234677747914716 Y-14.312108428329271 Z-0.7999999999999993
G01 X40.605105999999985 Y-12.420587 Z-0
